packages/ui-icons/svg/Solid/standards.svg

<svg viewBox="0 0 1920 1920" version="1.1" xmlns="http://www.w3.org/2000/svg">
    <path d="M960.056537,0 L112,363.420495 L112,1079.18021 C112,1469.85159 624,1749.59717 842.572438,1869.00353 C870.04947,1884.0424 892.325088,1896.14134 907.590106,1905.30035 L907.590106,1905.41343 C923.759717,1915.13781 941.85159,1920 960.056537,1920 C978.14841,1920 996.353357,1915.13781 1012.52297,1905.30035 C1027.78799,1896.14134 1050.0636,1884.0424 1077.54064,1869.00353 C1296.11307,1749.59717 1808.11307,1469.85159 1808.11307,1079.18021 L1808.11307,363.420495 L960.056537,0 Z M846.982332,1272.19788 L524.268551,949.484099 L604.325088,869.540636 L846.982332,1112.31095 L1372.32509,586.855124 L1452.38163,666.798587 L846.982332,1272.19788 Z" stroke="none" stroke-width="1" fill-rule="evenodd"/>
</svg>

<svg viewBox="0 0 1920 1920" version="1.1" xmlns="http://www.w3.org/2000/svg">
    <path d="M960.057 0L112 363.42v715.76c0 390.672 512 670.417 730.572 789.824 27.477 15.038 49.753 27.137 65.018 36.296v.113c16.17 9.725 34.262 14.587 52.467 14.587 18.091 0 36.296-4.862 52.466-14.7 15.265-9.159 37.54-21.258 65.018-36.296 218.572-119.407 730.572-399.152 730.572-789.824V363.42L960.057 0zM846.982 1272.198L524.27 949.484l80.056-79.943 242.657 242.77 525.343-525.456 80.057 79.944-605.4 605.399z" stroke="none" stroke-width="1" fill-rule="evenodd"/>
</svg>
